src/images_karasa_jaga_svg/cmd/sc_starshapes.star6.svg

<svg height="16" viewBox="0 0 16 16" width="16" xmlns="http://www.w3.org/2000/svg" xmlns:xlink="http://www.w3.org/1999/xlink"><linearGradient id="a" gradientUnits="userSpaceOnUse" x1="64" x2="64" y1="-128" y2="0"><stop offset="0" stop-color="#fff"/><stop offset=".59375" stop-color="#fff"/><stop offset=".84375" stop-color="#f1f1f1"/><stop offset=".90625" stop-color="#eaeaea"/><stop offset="1" stop-color="#dfdfdf"/></linearGradient><linearGradient id="b" gradientUnits="userSpaceOnUse" x1="65.3125" x2="64" y1="-127.8125" y2="0"><stop offset="0" stop-color="#7c9fcf"/><stop offset=".5" stop-color="#7c9ece"/><stop offset="1" stop-color="#7b9dcf"/></linearGradient><path d="m63.775391-127.49609a8.0752684 8.0752684 0 0 0 -6.929688 4.32617l-12.605469 24.087889-28.037109-.703125a8.0752684 8.0752684 0 0 0 -7.0214844 12.396484l14.5566404 22.958984-14.6269529 23.931641a8.0752684 8.0752684 0 0 0 7.2226559 12.279297l27.164063-1.128906 13.410156 24.6347654a8.0752684 8.0752684 0 0 0 14.246094-.1171875l12.605469-24.0878909 28.037114.703125a8.0752684 8.0752684 0 0 0 7.02148-12.396484l-14.55664-22.958984 14.62695-23.931641a8.0752684 8.0752684 0 0 0 -7.22265-12.279297l-27.164067 1.128906-13.410156-24.634766a8.0752684 8.0752684 0 0 0 -7.316406-4.20898z" fill="url(#b)" transform="scale(.125 -.125)"/><path d="m64.000001-8.5743713-15.814931-29.0486187-32.185068 1.335808 17.249375-28.220442-17.249377-27.205183 33.064308.828176 14.935691-28.540989 15.814931 29.048618 32.18507-1.335808-17.249377 28.220442 17.249377 27.205183-33.064308-.828177z" fill="url(#a)" transform="scale(.125 -.125)"/></svg>

<?xml version="1.0" encoding="UTF-8" standalone="no"?>
<!-- Created with Inkscape (http://www.inkscape.org/) -->

<svg
   xmlns:dc="http://purl.org/dc/elements/1.1/"
   xmlns:cc="http://creativecommons.org/ns#"
   xmlns:rdf="http://www.w3.org/1999/02/22-rdf-syntax-ns#"
   xmlns:svg="http://www.w3.org/2000/svg"
   xmlns="http://www.w3.org/2000/svg"
   xmlns:xlink="http://www.w3.org/1999/xlink"
   xmlns:sodipodi="http://sodipodi.sourceforge.net/DTD/sodipodi-0.dtd"
   xmlns:inkscape="http://www.inkscape.org/namespaces/inkscape"
   version="1.1"
   id="svg2"
   width="128"
   height="128"
   viewBox="0 0 128 128"
   sodipodi:docname="sc_starshapes.star6.svg"
   inkscape:export-filename="/home/rizmut/Dokumen/Rizmut/Github/libreoffice-style-karasa-jaga/build/images_karasa_jaga/cmd/sc_starshapes.star6.png"
   inkscape:export-xdpi="12"
   inkscape:export-ydpi="12"
   inkscape:version="0.92.3 (unknown)">
  <metadata
     id="metadata8">
    <rdf:RDF>
      <cc:Work
         rdf:about="">
        <dc:format>image/svg+xml</dc:format>
        <dc:type
           rdf:resource="http://purl.org/dc/dcmitype/StillImage" />
        <dc:title></dc:title>
      </cc:Work>
    </rdf:RDF>
  </metadata>
  <defs
     id="defs6">
    <linearGradient
       id="linearGradient3369">
      <stop
         id="stop3372"
         offset="0"
         style="stop-color:#ffffff;stop-opacity:1;" />
      <stop
         style="stop-color:#ffffff;stop-opacity:1;"
         offset="0.59375"
         id="stop3374" />
      <stop
         style="stop-color:#f1f1f1;stop-opacity:1;"
         offset="0.84375"
         id="stop3376" />
      <stop
         id="stop3378"
         offset="0.90625"
         style="stop-color:#eaeaea;stop-opacity:1;" />
      <stop
         id="stop3384"
         offset="1"
         style="stop-color:#dfdfdf;stop-opacity:1;" />
    </linearGradient>
    <linearGradient
       id="linearGradient7422">
      <stop
         style="stop-color:#7c9fcf;stop-opacity:1"
         offset="0"
         id="stop7424" />
      <stop
         id="stop5348"
         offset="0.5"
         style="stop-color:#7c9ece;stop-opacity:1" />
      <stop
         id="stop7426"
         offset="1"
         style="stop-color:#7b9dcf;stop-opacity:1" />
    </linearGradient>
    <linearGradient
       inkscape:collect="always"
       xlink:href="#linearGradient3369"
       id="linearGradient3441"
       x1="64"
       y1="-128"
       x2="64"
       y2="0"
       gradientUnits="userSpaceOnUse" />
    <linearGradient
       inkscape:collect="always"
       xlink:href="#linearGradient7422"
       id="linearGradient3445"
       gradientUnits="userSpaceOnUse"
       x1="65.3125"
       y1="-127.8125"
       x2="64"
       y2="0" />
  </defs>
  <sodipodi:namedview
     pagecolor="#ffffff"
     bordercolor="#666666"
     borderopacity="1"
     objecttolerance="10"
     gridtolerance="10"
     guidetolerance="10"
     inkscape:pageopacity="0"
     inkscape:pageshadow="2"
     inkscape:window-width="1366"
     inkscape:window-height="706"
     id="namedview4"
     showgrid="true"
     inkscape:snap-page="true"
     inkscape:snap-global="false"
     inkscape:zoom="1.4142136"
     inkscape:cx="39.629069"
     inkscape:cy="82.589489"
     inkscape:window-x="0"
     inkscape:window-y="0"
     inkscape:window-maximized="1"
     inkscape:current-layer="svg2"
     inkscape:snap-smooth-nodes="true">
    <inkscape:grid
       type="xygrid"
       id="grid27"
       spacingx="8"
       spacingy="8"
       empspacing="2" />
  </sodipodi:namedview>
  <path
     sodipodi:type="inkscape:offset"
     inkscape:radius="8.074461"
     inkscape:original="M 64 -119.42578 L 49.064453 -90.884766 L 16 -91.712891 L 33.25 -64.507812 L 16 -36.287109 L 48.185547 -37.623047 L 64 -8.5742188 L 78.935547 -37.115234 L 112 -36.287109 L 94.75 -63.492188 L 112 -91.712891 L 79.814453 -90.376953 L 64 -119.42578 z "
     style="opacity:1;fill:url(#linearGradient3445);fill-opacity:1;stroke:none;stroke-width:7.20106888;stroke-linecap:round;stroke-linejoin:round;stroke-miterlimit:4;stroke-dasharray:none;stroke-dashoffset:0;stroke-opacity:1"
     id="path3443"
     d="m 63.775391,-127.49609 a 8.0752684,8.0752684 0 0 0 -6.929688,4.32617 L 44.240234,-99.082031 16.203125,-99.785156 A 8.0752684,8.0752684 0 0 0 9.1816406,-87.388672 L 23.738281,-64.429688 9.1113281,-40.498047 a 8.0752684,8.0752684 0 0 0 7.2226559,12.279297 l 27.164063,-1.128906 13.410156,24.6347654 a 8.0752684,8.0752684 0 0 0 14.246094,-0.1171875 l 12.605469,-24.0878909 28.037114,0.703125 a 8.0752684,8.0752684 0 0 0 7.02148,-12.396484 l -14.55664,-22.958984 14.62695,-23.931641 a 8.0752684,8.0752684 0 0 0 -7.22265,-12.279297 l -27.164067,1.128906 -13.410156,-24.634766 a 8.0752684,8.0752684 0 0 0 -7.316406,-4.20898 z"
     transform="scale(1,-1)" />
  <path
     sodipodi:type="star"
     style="opacity:1;fill:url(#linearGradient3441);fill-opacity:1;stroke:none;stroke-width:7.20106888;stroke-linecap:round;stroke-linejoin:round;stroke-miterlimit:4;stroke-dasharray:none;stroke-dashoffset:0;stroke-opacity:1"
     id="path1546"
     sodipodi:sides="6"
     sodipodi:cx="64"
     sodipodi:cy="-63.999996"
     sodipodi:r1="55.425625"
     sodipodi:r2="30.754812"
     sodipodi:arg1="1.5707963"
     sodipodi:arg2="2.1109015"
     inkscape:flatsided="false"
     inkscape:rounded="0"
     inkscape:randomized="0"
     d="M 64.000001,-8.5743713 48.18507,-37.62299 16.000002,-36.287182 33.249377,-64.507624 16,-91.712807 49.064308,-90.884631 63.999999,-119.42562 79.81493,-90.377002 112,-91.71281 94.750623,-63.492368 112,-36.287185 78.935692,-37.115362 Z"
     transform="scale(1,-1)" />
</svg>
